www/assets/icons/image_not_supported.svg

<svg width="24" height="24" viewBox="0 0 24 24" xmlns="http://www.w3.org/2000/svg" fill='currentColor'><path d="M22.605 21.195L2.80502 1.39502L1.39502 2.80502L3.70502 5.12502V18.295C3.70502 19.395 4.60502 20.295 5.70502 20.295H18.875L21.185 22.605L22.605 21.195ZM5.70502 17.295L9.20502 12.795L11.705 15.805L12.875 14.295L15.875 17.295H5.70502ZM21.705 17.465L6.53502 2.29502H19.705C20.805 2.29502 21.705 3.19502 21.705 4.29502V17.465Z"/></svg>

<svg xmlns="http://www.w3.org/2000/svg" width="24" height="24" viewBox="0 0 24 24" fill='currentColor'><path d="m22.605 21.195-19.8-19.8-1.41 1.41 2.31 2.32v13.17c0 1.1.9 2 2 2h13.17l2.31 2.31zm-16.9-3.9 3.5-4.5 2.5 3.01 1.17-1.51 3 3zm16 .17L6.535 2.295h13.17c1.1 0 2 .9 2 2z"/></svg>
